assets/flags-color/Mh.svg

<svg xmlns="http://www.w3.org/2000/svg" viewBox="0 0 512 512"><path fill="#41479b" d="M0 0h512v512H0z"/><path fill="#f5f5f5" d="M0 512l512-323.368V94.316L0 498.526z"/><path fill="#ff9b55" d="M512 0L0 485.053v13.473l512-404.21z"/><path fill="#f5f5f5" d="M176.42 146.853l57.132-7.134-57.132-7.135 28.955-17.759-36.026 8.809 21.925-29.913-29.913 21.925 8.809-36.027-17.759 28.956-7.135-57.132-7.135 57.132-17.759-28.956 8.809 36.027-29.913-21.925 21.925 29.913-36.027-8.809 28.956 17.759L57 139.719l57.131 7.134-28.955 17.76 36.027-8.809-21.925 29.913 29.913-21.925-8.809 36.026 17.759-28.955 7.135 57.132 7.135-57.132 17.759 28.955-8.809-36.026 29.913 21.925-21.925-29.913 36.026 8.809z"/></svg>

<svg xmlns="http://www.w3.org/2000/svg" x="0" y="0" enable-background="new 0 0 512 512" version="1.1" viewBox="0 0 512 512" xml:space="preserve"><path fill="#41479B" d="M0 0H512V512H0z"/><path fill="#F5F5F5" d="M0 512 512 188.632 512 94.316 0 498.526z"/><path fill="#FF9B55" d="M512 0 0 485.053 0 498.526 512 94.316z"/><path fill="#F5F5F5" d="M176.42 146.853 233.552 139.719 176.42 132.584 205.375 114.825 169.349 123.634 191.274 93.721 161.361 115.646 170.17 79.619 152.411 108.575 145.276 51.443 138.141 108.575 120.382 79.619 129.191 115.646 99.278 93.721 121.203 123.634 85.176 114.825 114.132 132.584 57 139.719 114.131 146.853 85.176 164.613 121.203 155.804 99.278 185.717 129.191 163.792 120.382 199.818 138.141 170.863 145.276 227.995 152.411 170.863 170.17 199.818 161.361 163.792 191.274 185.717 169.349 155.804 205.375 164.613z"/></svg>
